Assets/SceneAssets/LUT creamy highs.cube
TITLE "Generated by Resolve"
LUT_3D_SIZE 9
0 0 0.000915541
0.00296025 0 0.00122072
0.0146029 0 0.00140383
0.0735637 0.000350958 0.000167849
0.248524 0 0
0.444831 0 0.000274662
0.605295 0 0
0.673548 0 0
0.673548 0 0
0.000106813 0.00125124 0.00155642
0.00183108 0.00149538 0.00131228
0.0138399 0.00204471 0.00128176
0.0794995 0.00259403 3.0518e-05
0.28452 0.00120546 9.15541e-05
0.500191 0 0.000274662
0.678553 0 0
0.751461 0 0
0.751461 0 0
0 0.00994888 0.00207523
0 0.0103609 0.00210575
0.0115969 0.0120546 0.000671397
0.0852827 0.0140688 0.00175479
0.335546 0.0133669 7.62951e-05
0.578531 0.00949111 0.000106813
0.782132 0.00378424 0.000137331
0.851667 0.00402838 0.000137331
0.851667 0.00402838 0.000137331
0 0.057145 0.00151064
0 0.0598154 0.00134279
4.57771e-05 0.0661936 0
0.0896468 0.0790265 0
0.32224 0.0855421 0.00570687
0.567086 0.0911727 0.00662242
0.731487 0.0829786 0.00489815
0.837812 0.0605173 0.00231937
0.837812 0.0605173 0.00231937
1.5259e-05 0.169345 0
1.5259e-05 0.178256 0
1.5259e-05 0.20264 0
0.047425 0.238148 0
0.356329 0.294606 1.5259e-05
0.836286 0.294942 0.00909438
0.894362 0.303548 0.0251774
0.891905 0.300343 0.0278477
0.891905 0.300343 0.0278477
3.0518e-05 0.281117 0
3.0518e-05 0.302083 0
0.000106813 0.350347 0
0.0424353 0.431418 0.000183108
0.239658 0.485664 0.0302281
0.712093 0.58265 0.0305943
0.88397 0.590021 0.0343481
0.909499 0.588556 0.0353246
0.909499 0.588556 0.0353246
6.10361e-05 0.338735 0
0.000183108 0.371328 0
0.000320439 0.433661 0
0.0572519 0.504646 0.00570687
0.230289 0.57377 0.0492256
0.446296 0.664347 0.0611429
0.841596 0.723232 0.048127
0.868681 0.724392 0.0482338
0.868681 0.724392 0.0482338
0.000167849 0.366033 0
0.000274662 0.410208 0
0.000411994 0.474067 0
0.0780804 0.521737 0.0126955
0.241932 0.600336 0.055375
0.345892 0.667369 0.073579
0.793667 0.751476 0.0531777
0.863554 0.758114 0.0535897
0.863554 0.758114 0.0535897
0.000167849 0.366033 0
0.000274662 0.410208 0
0.000411994 0.474067 0
0.0780804 0.521737 0.0126955
0.241932 0.600336 0.055375
0.345892 0.667369 0.073579
0.793667 0.751476 0.0531777
0.863554 0.758114 0.0535897
0.863554 0.758114 0.0535897
0 0 0.00102235
0.00283818 0 0.00141909
0.0146334 0 0.00161746
0.0745556 0.000350958 0.000961318
0.250095 0 0.000289921
0.450752 0 0.000274662
0.613184 0 0
0.6822 0 0
0.6822 0 0
0.000106813 0.00120546 0.00167849
0.00183108 0.00144961 0.0015259
0.0138705 0.00202945 0.00155642
0.0804913 0.00251774 0.000320439
0.287495 0.000808728 9.15541e-05
0.507057 0 0.000274662
0.68809 0 0
0.761563 0 0
0.761563 0 0
0 0.0100252 0.00228885
0 0.0104982 0.00231937
0.0116426 0.0121614 0.000976577
0.0859846 0.0141451 0.00177005
0.339406 0.0132601 7.62951e-05
0.585931 0.00932326 0.000106813
0.793271 0.00366217 0.000137331
0.861418 0.0040589 0.000137331
0.861418 0.0040589 0.000137331
0 0.0581674 0.00181582
0 0.0609293 0.00166323
0 0.0676432 0.000122072
0.090837 0.0804608 0
0.326909 0.0868696 0.00570687
0.576837 0.0927749 0.00671397
0.741009 0.0843366 0.00495918
0.844831 0.0618753 0.00241093
0.844831 0.0618753 0.00241093
1.5259e-05 0.172137 0.000183108
1.5259e-05 0.181125 0
1.5259e-05 0.206165 0
0.0480964 0.242878 0
0.359274 0.300694 1.5259e-05
0.837232 0.301747 0.0107118
0.896132 0.310475 0.0268101
0.893629 0.305974 0.0290074
0.893629 0.305974 0.0290074
3.0518e-05 0.28426 0
3.0518e-05 0.305791 0
0.000122072 0.355261 0
0.0434424 0.437736 0.000427253
0.244404 0.492454 0.0323949
0.719356 0.592065 0.0318151
0.880888 0.597299 0.0347448
0.906477 0.595407 0.0355993
0.906477 0.595407 0.0355993
6.10361e-05 0.341253 0
0.000198367 0.374487 0
0.000320439 0.437751 0
0.0583352 0.507637 0.00627146
0.233158 0.578576 0.0504005
0.449866 0.669993 0.062089
0.841321 0.72781 0.0488289
0.868971 0.728893 0.0489357
0.868971 0.728893 0.0489357
3.0518e-05 0.368475 0.00158694
0.000259403 0.411475 0
0.000411994 0.47541 0
0.0764477 0.52311 0.012604
0.241749 0.60148 0.0555581
0.346426 0.668696 0.0738537
0.793729 0.752499 0.0533608
0.863523 0.758923 0.053727
0.863523 0.758923 0.053727
3.0518e-05 0.368475 0.00158694
0.000259403 0.411475 0
0.000411994 0.47541 0
0.0764477 0.52311 0.012604
0.241749 0.60148 0.0555581
0.346426 0.668696 0.0738537
0.793729 0.752499 0.0533608
0.863508 0.758907 0.053727
0.863523 0.758923 0.053727
0 0 0.00827039
0.00230411 0 0.0075227
0.0131533 1.5259e-05 0.0084535
0.0753643 0.000335698 0.00917067
0.25417 0 0.0090486
0.465415 0 0.00463874
0.637156 0 0.00352483
0.709438 0 0.00364691
0.709438 0 0.00364691
0.000198367 0.00263981 0.0037232
0 0.00233463 0.00825513
0.0124666 0.0019379 0.00875868
0.0814527 0.00225834 0.00917067
0.281254 0 0.00848402
0.522347 0 0.00433356
0.71545 0 0.00323491
0.790555 0 0.00332647
0.790555 0 0.00332647
0.000839246 0.0107881 0.0146944
0.00077821 0.0112917 0.0146334
0.0103914 0.0124056 0.00978103
0.0939193 0.0138857 0.00807202
0.334676 0.0109712 0.00367742
0.594903 0.00456245 0.000122072
0.819257 0 0
0.88632 0.000457771 0.00015259
0.88632 0.000457771 0.00015259
0 0.0627298 0.00985733
0 0.0657054 0.00979629
0 0.0734264 0.0087892
0.0852064 0.0822766 0.000823987
0.316274 0.0866712 0.00538643
0.572229 0.0899977 0.00650034
0.74197 0.0807507 0.00462348
0.854932 0.0581979 0.00205997
0.854932 0.0581979 0.00205997
0 0.183902 0.00813306
0 0.193408 0.00814832
0 0.217014 0.00688182
0.0423438 0.249073 0.00218204
0.353338 0.30695 0
0.832395 0.307179 0.0112917
0.897566 0.31548 0.0274662
0.894926 0.309941 0.0294957
0.894926 0.309941 0.0294957
1.5259e-05 0.302724 0.00950637
1.5259e-05 0.323461 0.00898756
3.0518e-05 0.368948 0.00523384
0.0329747 0.445579 0.000534066
0.240452 0.497887 0.0337835
0.711788 0.6 0.0328222
0.87689 0.607156 0.0353704
0.9028 0.603937 0.035996
0.9028 0.603937 0.035996
1.5259e-05 0.363775 0.0128481
1.5259e-05 0.395651 0.0121614
3.0518e-05 0.451209 0.00909438
0.0401923 0.513146 0.00671397
0.222919 0.574319 0.0486152
0.438132 0.663493 0.0622721
0.841337 0.727733 0.0488136
0.868711 0.727779 0.0487526
0.868727 0.727794 0.0487526
1.5259e-05 0.399985 0.0207675
1.5259e-05 0.441672 0.0206149
0.000122072 0.49514 0.0190585
0.0548562 0.527321 0.0310979
0.222461 0.586923 0.0611276
0.325536 0.646204 0.0722362
0.793179 0.73962 0.0524605
0.864393 0.744671 0.0522621
0.864393 0.744671 0.0522621
1.5259e-05 0.399954 0.0207523
1.5259e-05 0.441672 0.0206149
0.000122072 0.49514 0.0190585
0.0548562 0.527321 0.0310979
0.222461 0.586923 0.0611276
0.325536 0.646204 0.0722362
0.793179 0.73962 0.0524605
0.864393 0.744671 0.0522621
0.864393 0.744671 0.0522621
0 0 0.054902
0 0 0.0463874
0.0108644 0 0.0475319
0.0669413 0 0.0546273
0.255543 0 0.0678874
0.479011 0 0.071397
0.656062 0 0.0506142
0.734295 0 0.033463
0.734295 0 0.033463
0 1.5259e-05 0.059968
0 0.00230411 0.0606546
0.00984207 0.000839246 0.050782
0.0716716 0.00148013 0.0581521
0.281575 0 0.0734722
0.533639 0 0.0768902
0.730495 0 0.0547646
0.810285 0 0.0368048
0.810285 0 0.0368048
0.00140383 0.0190585 0.0316167
0.00140383 0.0202029 0.0319677
0 0.0225986 0.0499123
0.0822766 0.0137026 0.0694133
0.327352 0.00988785 0.0750439
0.585184 0.00328069 0.072282
0.808972 0 0.0541085
0.87715 0.000335698 0.035111
0.87715 0.000335698 0.035111
0.00283818 0.0706188 0.127047
0.00289921 0.0739605 0.131655
0.00289921 0.0823377 0.135775
0.0713817 0.0858015 0.0729076
0.315099 0.090135 0.0717632
0.584695 0.0860151 0.0657054
0.780468 0.0749218 0.0448157
0.861982 0.0542916 0.033341
0.861982 0.0542916 0.033341
0 0.208087 0.0720989
0 0.219043 0.0743877
0 0.244236 0.0762188
0.0233921 0.27364 0.0747082
0.312581 0.312444 0.053315
0.679774 0.319417 0.111849
0.809857 0.328435 0.0991684
0.840665 0.325261 0.0911574
0.840665 0.325261 0.0911574
0 0.338659 0.0626993
0 0.362127 0.0645609
0 0.413901 0.0661021
0.0127565 0.478782 0.0650645
0.228641 0.511437 0.126772
0.642466 0.599771 0.110048
0.87248 0.618662 0.105318
0.900496 0.614481 0.107408
0.900496 0.614481 0.107408
0 0.406317 0.0504158
0 0.441382 0.0527047
0 0.496529 0.0556344
0.0221408 0.543755 0.0705882
0.215473 0.596826 0.13576
0.42092 0.667765 0.161883
0.830762 0.747555 0.135775
0.859403 0.746075 0.134279
0.859403 0.746075 0.134279
0 0.44239 0.0625925
0 0.483696 0.0669108
0.00184634 0.529381 0.0727092
0.0372473 0.559426 0.09897
0.224292 0.626719 0.161608
0.328939 0.680888 0.183276
0.781186 0.781292 0.169131
0.850706 0.785901 0.1673
0.850706 0.785901 0.1673
0 0.44239 0.0625925
0 0.483696 0.0669108
0.00184634 0.529335 0.072694
0.0372473 0.559426 0.09897
0.224292 0.626719 0.161608
0.328984 0.680919 0.183307
0.781186 0.781292 0.169131
0.850706 0.785901 0.1673
0.850706 0.785901 0.1673
0 0.00112917 0.184665
0 0.00115969 0.188128
0.00309758 0 0.150057
0.0635996 0 0.166293
0.247791 0 0.207019
0.458076 0 0.240345
0.612879 0 0.239765
0.691066 0 0.201724
0.691066 0 0.201724
0 0.0012665 0.199023
0 0.00131228 0.203403
0.0024567 0 0.16228
0.0675822 0 0.179782
0.272435 0 0.228336
0.502495 0 0.261158
0.669047 0 0.258518
0.749477 0 0.218738
0.749477 0 0.218738
0 0.00373846 0.233661
0 0.00846876 0.231922
0 0.022858 0.202594
0.0723125 0.00793469 0.22565
0.296727 0.00584421 0.256336
0.538643 0.000854505 0.28101
0.715602 0 0.274708
0.799054 0.000198367 0.229358
0.799054 0.000198367 0.229358
0.000122072 0.112184 0.0663462
0.000106813 0.116716 0.0675669
7.62951e-05 0.129335 0.0717632
0.00576791 0.115526 0.228397
0.286824 0.0897993 0.260578
0.548592 0.0834974 0.269154
0.739895 0.0705882 0.257282
0.820554 0.0476234 0.219638
0.820554 0.0476234 0.219638
0.00512703 0.227573 0.393896
0.0053254 0.239124 0.408301
0.00587472 0.266453 0.434089
0.00578317 0.298665 0.426795
0.288899 0.325277 0.285786
0.544549 0.348547 0.303746
0.683589 0.354574 0.301488
0.706691 0.348486 0.268833
0.706691 0.348486 0.268833
0.00274662 0.389242 0.364721
0.00231937 0.420096 0.362554
0.00123598 0.482017 0.339071
0.000213626 0.551308 0.291615
0.217258 0.552926 0.324178
0.602548 0.642832 0.33991
0.829633 0.664851 0.363119
0.875166 0.665614 0.318379
0.875166 0.665614 0.318379
0 0.471443 0.204822
0 0.504677 0.214282
0 0.547066 0.225437
0.0119631 0.584588 0.237629
0.217807 0.64123 0.308598
0.421805 0.713817 0.345892
0.806592 0.797284 0.308248
0.848478 0.797696 0.248875
0.848478 0.797696 0.248875
0 0.476066 0.115999
1.5259e-05 0.513832 0.12578
0.00448615 0.549477 0.139101
0.0203555 0.590936 0.162371
0.223239 0.661097 0.238437
0.33286 0.719585 0.26717
0.762478 0.819516 0.275227
0.844862 0.83154 0.271305
0.844846 0.831571 0.271382
0 0.476066 0.115999
1.5259e-05 0.513832 0.12578
0.00447089 0.549416 0.139086
0.0203555 0.590936 0.162371
0.223239 0.661097 0.238437
0.33286 0.719585 0.26717
0.762478 0.819516 0.275227
0.844862 0.83154 0.271305
0.844862 0.83154 0.271305
0 0.00259403 0.378546
0 0.00263981 0.38645
0 0.002121 0.382834
0.0448005 0 0.322408
0.245624 0 0.414725
0.449012 0 0.479103
0.580911 0 0.501289
0.63154 0 0.501472
0.63154 0 0.501472
0 0.00276188 0.406806
0 0.00282292 0.414282
0 0.00202945 0.404608
0.0479438 0 0.35317
0.269215 0 0.465629
0.486763 0 0.520211
0.628275 0 0.534478
0.679347 0 0.535439
0.679347 0 0.535439
0 0.00302129 0.44181
0 0.00308232 0.448264
0 0.018204 0.45362
0.0449989 0.00666819 0.45597
0.280247 0.0041352 0.510399
0.509972 7.62951e-05 0.550393
0.661936 0 0.566812
0.70454 0.000274662 0.55285
0.70454 0.000274662 0.55285
0 0.0852369 0.278264
0 0.0920729 0.273564
0.000396735 0.11342 0.244556
0 0.088426 0.564874
0.272068 0.0518959 0.486244
0.50132 0.049012 0.480064
0.66276 0.0459449 0.478798
0.714824 0.0497597 0.475883
0.714824 0.0497597 0.475883
0.00378424 0.272847 0.331762
0.00454719 0.28307 0.365469
0.00613413 0.308629 0.450675
0.00637827 0.349752 0.565576
0.182071 0.354147 0.435798
0.502556 0.340017 0.440635
0.64654 0.34345 0.45098
0.683299 0.330724 0.449775
0.683299 0.330724 0.449775
0.00747692 0.426719 0.664851
0.00813306 0.45098 0.68426
0.00883497 0.495842 0.706157
0.00848402 0.542489 0.696208
0.179843 0.573632 0.569924
0.608637 0.648356 0.571359
0.75697 0.690929 0.592386
0.789456 0.700008 0.594797
0.789456 0.700008 0.594797
0.00874342 0.486397 0.698619
0.00881972 0.512764 0.703365
0.00843824 0.543297 0.694392
0.0139315 0.586633 0.666804
0.20116 0.673381 0.587945
0.39942 0.739055 0.586633
0.790387 0.825422 0.632349
0.856443 0.833585 0.654368
0.856443 0.833585 0.654368
0.00874342 0.504372 0.695033
0.00851453 0.529656 0.691341
0.0080415 0.553918 0.680873
0.0208896 0.6065 0.649439
0.212085 0.697292 0.581857
0.336614 0.760327 0.577173
0.748928 0.847623 0.630579
0.834394 0.874357 0.623423
0.834394 0.874357 0.623423
0.00874342 0.504372 0.695033
0.00851453 0.529656 0.691341
0.0080415 0.553918 0.680873
0.0208896 0.6065 0.649439
0.212085 0.697292 0.581857
0.336614 0.760327 0.577173
0.748928 0.847623 0.630579
0.834394 0.874357 0.623423
0.834394 0.874357 0.623423
0 0.00323491 0.462654
0 0.00328069 0.46566
0 0.00335698 0.46891
0.0124666 0 0.422385
0.199908 0 0.528435
0.448615 0 0.588678
0.582559 0 0.600107
0.632425 0 0.60325
0.632425 0 0.60325
0 0.00343328 0.470573
0 0.00349432 0.471626
0 0.00357061 0.473884
0.016144 1.5259e-05 0.454353
0.220249 0 0.5635
0.483711 0 0.606439
0.63035 0 0.609705
0.680049 0 0.610376
0.680049 0 0.610376
0 0.00367742 0.476875
0 0.00373846 0.478614
0 0.0145418 0.48278
0.00721752 0.0105745 0.531624
0.226749 0.00482185 0.577752
0.498314 0.000686656 0.598795
0.652781 0 0.607645
0.693049 0.00105287 0.594858
0.693049 0.00105287 0.594858
0 0.0686961 0.496361
0 0.0781872 0.493919
0 0.108553 0.436179
0 0.102495 0.583764
0.216419 0.0471809 0.522499
0.484703 0.0484169 0.500038
0.644083 0.0486152 0.496208
0.695171 0.0525826 0.494469
0.695171 0.0525826 0.494469
0.00332647 0.204532 0.264286
0.0027924 0.218372 0.25391
0.00123598 0.253681 0.211749
0.000274662 0.294347 0.174578
0.103517 0.190845 0.496971
0.51902 0.173831 0.486213
0.715694 0.157549 0.485466
0.776944 0.140978 0.490211
0.776944 0.140978 0.490211
0.00807202 0.447486 0.68069
0.00856031 0.472969 0.700481
0.00903334 0.515862 0.72433
0.00885023 0.558053 0.723934
0.14725 0.576974 0.598596
0.530449 0.651164 0.586099
0.718074 0.680491 0.591165
0.75494 0.686687 0.593515
0.75494 0.686687 0.593515
0.00901808 0.513649 0.722515
0.00903334 0.537285 0.726329
0.00872816 0.563729 0.719829
0.00868238 0.605341 0.716426
0.174731 0.688899 0.633204
0.319524 0.754726 0.630518
0.800702 0.819638 0.672938
0.852094 0.83212 0.68101
0.852094 0.83212 0.68101
0.00903334 0.532555 0.725139
0.00885023 0.553979 0.722103
0.00851453 0.577356 0.716167
0.0131991 0.626459 0.707424
0.180926 0.715755 0.636759
0.304601 0.781979 0.633249
0.760128 0.843519 0.678035
0.847013 0.868116 0.685481
0.847013 0.868116 0.685481
0.00903334 0.532555 0.725139
0.00885023 0.553979 0.722103
0.00851453 0.577356 0.716167
0.0131991 0.626459 0.707424
0.180926 0.715755 0.636759
0.304601 0.781979 0.633249
0.760128 0.843519 0.678035
0.847013 0.868116 0.685481
0.847013 0.868116 0.685481
0 0.00347906 0.471321
0 0.00352483 0.472496
0 0.00360113 0.474922
0.0133669 1.5259e-05 0.45594
0.070161 0 0.498512
0.442206 0 0.605936
0.599466 0 0.610742
0.649714 0 0.61178
0.649714 0 0.61178
0 0.00369268 0.47718
0 0.00375372 0.478996
0 0.00384527 0.481483
0.0162814 1.5259e-05 0.478553
0.0790723 0 0.514595
0.467552 0 0.613336
0.637888 0 0.617578
0.689464 0 0.618647
0.689464 0 0.618647
0 0.00390631 0.483299
0 0.00396735 0.485145
0 0.0277409 0.490059
0.00198367 0.0184939 0.565621
0.0867628 0.011017 0.578347
0.46154 0.00639353 0.577157
0.630732 0.00466926 0.577905
0.673762 0.00726329 0.564813
0.673762 0.00726329 0.564813
0 0.0801099 0.515908
0 0.0917525 0.508598
0 0.12015 0.455787
0 0.119646 0.577935
0.0773327 0.0562295 0.544945
0.457618 0.0541085 0.502754
0.642908 0.0544594 0.499474
0.69752 0.0584268 0.498695
0.69752 0.0584268 0.498695
0.00277714 0.171206 0.323949
0.00395209 0.179202 0.333349
0.00489815 0.2009 0.333333
0.00340276 0.238804 0.294224
0.00704967 0.181216 0.517845
0.483101 0.136461 0.496605
0.71841 0.138033 0.497414
0.770733 0.143374 0.494926
0.770733 0.143374 0.494926
0.00759899 0.411048 0.585245
0.00813306 0.437461 0.639292
0.0087129 0.483162 0.699611
0.00907912 0.53637 0.729732
0.115496 0.529778 0.575738
0.438575 0.566003 0.536583
0.689326 0.58558 0.545647
0.726436 0.577951 0.547524
0.726436 0.577951 0.547524
0.00906386 0.52079 0.725948
0.0090486 0.544045 0.729595
0.00875868 0.568597 0.724224
0.00831617 0.608408 0.724453
0.167803 0.688045 0.642023
0.292439 0.751339 0.641962
0.77467 0.819608 0.675746
0.846082 0.828428 0.683833
0.846082 0.828428 0.683833
0.00906386 0.539986 0.728817
0.00885023 0.561105 0.725429
0.00854505 0.582956 0.721263
0.0120089 0.630289 0.717739
0.174624 0.717586 0.64741
0.296696 0.784009 0.645747
0.711757 0.839094 0.682261
0.849683 0.865965 0.694621
0.849683 0.865965 0.694621
0.00906386 0.539986 0.728817
0.00885023 0.561105 0.725429
0.00854505 0.58291 0.721248
0.0120089 0.630289 0.717739
0.174624 0.717586 0.64741
0.296696 0.784009 0.645747
0.711757 0.839094 0.682261
0.849683 0.865965 0.694621
0.849683 0.865965 0.694621
0 0.00347906 0.471321
0 0.00352483 0.472496
0 0.00360113 0.474922
0.0133669 1.5259e-05 0.45594
0.070161 0 0.498512
0.442206 0 0.605936
0.599466 0 0.610742
0.649714 0 0.61178
0.649714 0 0.61178
0 0.00369268 0.47718
0 0.00375372 0.478996
0 0.00384527 0.481483
0.0162814 1.5259e-05 0.478553
0.0790723 0 0.514595
0.467552 0 0.613336
0.637888 0 0.617578
0.689464 0 0.618647
0.689464 0 0.618647
0 0.00390631 0.483299
0 0.00396735 0.485145
0 0.0277409 0.490059
0.00198367 0.0184939 0.565621
0.0867628 0.011017 0.578347
0.46154 0.00639353 0.577157
0.630732 0.00466926 0.577905
0.673762 0.00726329 0.564813
0.673777 0.00723278 0.56495
0 0.0801099 0.515908
0 0.0917525 0.508598
0 0.12015 0.455787
0 0.119646 0.577935
0.0773327 0.0562295 0.544945
0.457618 0.0541085 0.502754
0.642908 0.0544594 0.499474
0.69752 0.0584268 0.498695
0.69752 0.0584268 0.498695
0.00277714 0.171206 0.323949
0.00395209 0.179202 0.333349
0.00489815 0.2009 0.333333
0.00340276 0.238804 0.294224
0.00704967 0.181216 0.517845
0.483101 0.136461 0.496605
0.71841 0.138033 0.497414
0.770733 0.143374 0.494926
0.770733 0.143374 0.494926
0.00759899 0.411048 0.585245
0.00813306 0.437461 0.639292
0.0087129 0.483162 0.699611
0.00907912 0.53637 0.729732
0.115496 0.529778 0.575738
0.438575 0.566003 0.536583
0.689326 0.58558 0.545647
0.726436 0.577951 0.547524
0.726436 0.577951 0.547524
0.00906386 0.52079 0.725948
0.0090486 0.544045 0.729595
0.00875868 0.568597 0.724224
0.00831617 0.608408 0.724453
0.167803 0.688045 0.642023
0.292439 0.751339 0.641962
0.77467 0.819608 0.675746
0.846082 0.828428 0.683833
0.846082 0.828428 0.683833
0.00906386 0.539986 0.728817
0.00885023 0.561105 0.725429
0.00854505 0.582956 0.721263
0.0120089 0.630289 0.717739
0.174624 0.717586 0.64741
0.296696 0.784009 0.645747
0.711757 0.839094 0.682261
0.849683 0.865965 0.694621
0.849683 0.865965 0.694621
0.00906386 0.539986 0.728817
0.00885023 0.561105 0.725429
0.00854505 0.582956 0.721263
0.0120089 0.630289 0.717739
0.174624 0.717586 0.64741
0.296696 0.784009 0.645747
0.711757 0.839094 0.682261
0.849683 0.865965 0.694621
0.849683 0.865965 0.694621
