Assets/SceneAssets/LUT creamy highs.cube
TITLE "Generated by Resolve"
LUT_3D_SIZE 33
0 0 0.000915541
0 0 0.000915541
0 0 0.000915541
0.00134279 0 0.00109865
0.00296025 0 0.00122072
0.00425727 0 0.0012665
0.00646983 0 0.00134279
0.00991836 0 0.00138857
0.0146029 0 0.00140383
0.0218509 0 0.00138857
0.0340276 0.000137331 0.00132753
0.0511025 0.000274662 0.00115969
0.0735637 0.000350958 0.000167849
0.104463 0.000335698 4.57771e-05
0.146944 0.000137331 6.10361e-05
0.19585 0 0
0.248524 0 0
0.297795 0 0.00030518
0.352819 0 0.000259403
0.400519 0 0.000274662
0.444831 0 0.000274662
0.49305 0 0.000274662
0.533516 0 0
0.57258 0 0
0.605295 0 0
0.632258 0 0
0.654978 0 0
0.673548 0 0
0.673548 0 0
0.673548 0 0
0.673548 0 0
0.673548 0 0
0.673548 0 0
0 0 0.000915541
0 0 0.000915541
0 0 0.000915541
0.00134279 0 0.00109865
0.00296025 0 0.00122072
0.00425727 0 0.0012665
0.00646983 0 0.00134279
0.00991836 0 0.00138857
0.0146029 0 0.00140383
0.0218509 0 0.00138857
0.0340276 0.000137331 0.00132753
0.0511025 0.000274662 0.00115969
0.0735637 0.000350958 0.000167849
0.104463 0.000335698 4.57771e-05
0.146944 0.000137331 6.10361e-05
0.19585 0 0
0.248524 0 0
0.297795 0 0.00030518
0.352819 0 0.000259403
0.400519 0 0.000274662
0.444831 0 0.000274662
0.49305 0 0.000274662
0.533516 0 0
0.57258 0 0
0.605295 0 0
0.632258 0 0
0.654978 0 0
0.673548 0 0
0.673548 0 0
0.673548 0 0
0.673548 0 0
0.673548 0 0
0.673548 0 0
0 0 0.000915541
0 0 0.000915541
0 0 0.000915541
0.00134279 0 0.00109865
0.00296025 0 0.00122072
0.00425727 0 0.0012665
0.00646983 0 0.00134279
0.00991836 0 0.00138857
0.0146029 0 0.00140383
0.0218509 0 0.00138857
0.0340276 0.000137331 0.00132753
0.0511025 0.000274662 0.00115969
0.0735637 0.000350958 0.000167849
0.104463 0.000335698 4.57771e-05
0.146944 0.000137331 6.10361e-05
0.19585 0 0
0.248524 0 0
0.297795 0 0.00030518
0.352819 0 0.000259403
0.400519 0 0.000274662
0.444831 0 0.000274662
0.49305 0 0.000274662
0.533516 0 0
0.57258 0 0
0.605295 0 0
0.632258 0 0
0.654978 0 0
0.673548 0 0
0.673548 0 0
0.673548 0 0
0.673548 0 0
0.673548 0 0
0.673548 0 0
0 0 0.00108339
0 0 0.00108339
0 0 0.00108339
0.000808728 0 0.00120546
0.00242618 0 0.00131228
0.00366217 0 0.00134279
0.00588998 9.15541e-05 0.00137331
0.00939956 0.000289921 0.00138857
0.0141146 0.000534066 0.00137331
0.021561 0.000732433 0.00134279
0.0343786 0.000869764 0.00123598
0.0526284 0.000946059 0.000946059
0.0770275 0.000991836 3.0518e-05
0.110445 0.0009308 4.57771e-05
0.156237 0.000671397 6.10361e-05
0.210666 0.000183108 7.62951e-05
0.266651 0 0
0.320974 0 0.000259403
0.373556 0 0.000274662
0.421805 0 0.000274662
0.476585 0 0.000274662
0.525017 0 0
0.571466 0 0
0.612924 0 0
0.646937 0 0
0.674327 0 0
0.69749 0 0
0.716716 0 0
0.716716 0 0
0.716716 0 0
0.716716 0 0
0.716716 0 0
0.716716 0 0
0.000106813 0.00125124 0.00155642
0.000106813 0.00125124 0.00155642
0.000106813 0.00125124 0.00155642
0.00047303 0.00131228 0.00158694
0.00183108 0.00149538 0.00131228
0.00358587 0.00149538 0.00109865
0.00570687 0.00164797 0.00112917
0.00915541 0.00183108 0.00125124
0.0138399 0.00204471 0.00128176
0.0213931 0.00225834 0.0012665
0.0345769 0.00238041 0.00114443
0.0536049 0.00250248 0.000839246
0.0794995 0.00259403 3.0518e-05
0.115068 0.00259403 4.57771e-05
0.163867 0.00236515 6.10361e-05
0.222797 0.00189212 7.62951e-05
0.28452 0.00120546 9.15541e-05
0.346471 6.10361e-05 6.10361e-05
0.396002 0 0
0.441901 0 0.00030518
0.500191 0 0.000274662
0.55108 0 0
0.599985 0 0
0.64329 0 0
0.678553 0 0
0.70724 0 0
0.731594 0 0
0.751461 0 0
0.751461 0 0
0.751461 0 0
0.751461 0 0
0.751461 0 0
0.751461 0 0
0 0.00241093 0.00140383
0 0.00241093 0.00140383
0 0.00241093 0.00140383
0.00015259 0.0024567 0.00149538
0.00175479 0.00254826 0.00157168
0.00294499 0.00271611 0.00132753
0.0053254 0.00276188 0.00141909
0.00881972 0.00294499 0.00115969
0.0140383 0.00311284 0.00115969
0.0217899 0.00334173 0.00117494
0.0352941 0.00352483 0.00106813
0.0549783 0.00366217 0.00077821
0.0822766 0.00376898 3.0518e-05
0.11989 0.00376898 4.57771e-05
0.171176 0.00354009 6.10361e-05
0.233829 0.00311284 7.62951e-05
0.297978 0.002533 9.15541e-05
0.362936 0.00167849 9.15541e-05
0.418051 0.000198367 0.000106813
0.466987 0 0
0.522896 0 0
0.579217 0 0.000289921
0.623835 0 0
0.666972 0 0
0.704005 0 0
0.73434 0 0
0.75964 0 0
0.781857 0 0
0.781857 0 0
0.781857 0 0
0.781857 0 0
0.781857 0 0
0.781857 0 0
0 0.00387579 0.00157168
0 0.00387579 0.00157168
0 0.00387579 0.00157168
0 0.00393683 0.00164797
0.00135805 0.00402838 0.00169375
0.00259403 0.00416571 0.00177005
0.00457771 0.0043946 0.00122072
0.00874342 0.00444038 0.00144961
0.0125124 0.00492866 0.00146487
0.0198062 0.00527962 0.00149538
0.0350042 0.00538643 0.000991836
0.0561837 0.00552377 0.00047303
0.085832 0.00563058 3.0518e-05
0.126345 0.00567636 4.57771e-05
0.18024 0.00544747 6.10361e-05
0.245808 0.00503548 7.62951e-05
0.311406 0.00448615 7.62951e-05
0.375448 0.00375372 9.15541e-05
0.429831 0.00277714 0.000106813
0.491005 0.00134279 0.000106813
0.552773 0 0
0.60734 0 0
0.653819 0 0
0.698497 0 0
0.737224 0 0
0.767468 0 0
0.794079 0 0
0.812528 0 0
0.812528 0 0
0.812528 0 0
0.812528 0 0
0.812528 0 0
0.812528 0 0
0 0.00636301 0.00183108
0 0.00636301 0.00183108
0 0.00636301 0.00183108
0 0.00648508 0.00187686
0 0.00662242 0.00189212
0.00177005 0.00674449 0.00192264
0.0040589 0.0069276 0.00196841
0.00746166 0.0074464 0.0010071
0.014313 0.00750744 0.000411994
0.0210117 0.00798047 0.00146487
0.0319219 0.00875868 0.00167849
0.0521096 0.00906386 0.00123598
0.0878767 0.0089723 0.000442512
0.134554 0.00894179 0.000106813
0.19147 0.0087892 6.10361e-05
0.258152 0.00852979 7.62951e-05
0.324605 0.0081178 7.62951e-05
0.386908 0.00741588 9.15541e-05
0.439734 0.00640879 9.15541e-05
0.502953 0.00531014 0.000106813
0.564813 0.00422675 0.000106813
0.621729 0.00309758 0.000122072
0.675715 0.00180056 0.000122072
0.729107 0.00030518 0.000137331
0.766949 0.000122072 0.000122072
0.796078 0.000274662 0.000137331
0.817807 0.000640879 0.000137331
0.833387 0.00112917 0.000137331
0.833387 0.00112917 0.000137331
0.833387 0.00112917 0.000137331
0.833387 0.00112917 0.000137331
0.833387 0.00112917 0.000137331
0.833371 0.00111391 0.000137331
0 0.00994888 0.00207523
0 0.00994888 0.00207523
0 0.00994888 0.00207523
0 0.0101167 0.002121
0 0.0103609 0.00210575
0.000228885 0.0105135 0.00209049
0.00308232 0.0106966 0.002121
0.00682078 0.0111543 0.00207523
0.0115969 0.0120546 0.000671397
0.023331 0.0120851 0.000167849
0.036347 0.0125734 0.00183108
0.0535286 0.0136873 0.00224308
0.0852827 0.0140688 0.00175479
0.135714 0.0139925 0.000854505
0.197757 0.0137942 0.00030518
0.267445 0.0136263 0.000106813
0.335546 0.0133669 7.62951e-05
0.396582 0.0128023 9.15541e-05
0.449973 0.0118715 9.15541e-05
0.516182 0.0107118 0.000106813
0.578531 0.00949111 0.000106813
0.635096 0.00820935 0.000122072
0.687312 0.00677501 0.000122072
0.736996 0.00523384 0.000122072
0.782132 0.00378424 0.000137331
0.813275 0.00347906 0.000137331
0.834974 0.00369268 0.000137331
0.851667 0.00402838 0.000137331
0.851667 0.00402838 0.000137331
0.851667 0.00402838 0.000137331
0.851667 0.00402838 0.000137331
0.851667 0.00402838 0.000137331
0.851667 0.00402838 0.000137331
0 0.0157626 0.00230411
0 0.0157626 0.00230411
0 0.0157626 0.00230411
0 0.0159762 0.00231937
0 0.0164034 0.00230411
0 0.0167697 0.00228885
0.00175479 0.0168917 0.0021973
0.00549325 0.0174563 0.00213626
0.0103914 0.0184024 0.00187686
0.0186618 0.0198825 0
0.0412757 0.019379 0.000381476
0.0628977 0.0197299 0.00250248
0.0889448 0.0219425 0.00297551
0.130343 0.0229038 0.00271611
0.188098 0.0231022 0.00187686
0.259571 0.0229343 0.00111391
0.332921 0.0226291 0.000640879
0.396506 0.0220951 0.000396735
0.460761 0.0210727 0.000198367
0.532158 0.019791 0.000106813
0.597269 0.0185245 0.000106813
0.654749 0.0170443 0.000106813
0.708278 0.015259 0.000122072
0.756573 0.0132448 0.000122072
0.798474 0.0108492 0.000122072
0.834897 0.00814832 0.000137331
0.861021 0.00730907 0.000137331
0.877256 0.00784314 0.000137331
0.877256 0.00784314 0.000137331
0.877256 0.00784314 0.000137331
0.877256 0.00784314 0.000137331
0.877256 0.00784314 0.000137331
0.877256 0.00784314 0.000137331
0 0.025391 0.00231937
0 0.025391 0.00231937
0 0.025391 0.00231937
0 0.0259403 0.00233463
0 0.026688 0.00230411
0 0.0273594 0.00225834
0 0.0279088 0.00209049
0.00297551 0.028397 0.00177005
0.00793469 0.0295262 0.00144961
0.0159457 0.0310063 0.000701915
0.0323033 0.0334325 0
0.0689708 0.0326696 0.000350958
0.105486 0.0326543 0.00308232
0.138994 0.0362707 0.00389105
0.18349 0.038529 0.00410468
0.237964 0.0396735 0.00378424
0.297383 0.0402075 0.00325017
0.35024 0.0400244 0.00276188
0.424887 0.0389258 0.00209049
0.505608 0.0373999 0.00146487
0.583337 0.0357519 0.000991836
0.654841 0.0338445 0.000640879
0.716518 0.0315862 0.000381476
0.768124 0.0289464 0.000198367
0.810117 0.0256809 0.000137331
0.844221 0.0215 0.000122072
0.877882 0.0162661 0.000122072
0.901305 0.0143893 0.000137331
0.901305 0.0143893 0.000137331
0.901305 0.0143893 0.000137331
0.901305 0.0143893 0.000137331
0.901305 0.0143893 0.000137331
0.901305 0.0143893 0.000137331
0 0.0395666 0.00196841
0 0.0395666 0.00196841
0 0.0395666 0.00196841
0 0.0404822 0.00195315
0 0.0415656 0.00187686
0 0.0426184 0.00178531
0 0.043595 0.00158694
0 0.0444953 0.0011902
0.00440986 0.0452888 0.000640879
0.0125887 0.0467536 0
0.0278172 0.049073 0
0.0554208 0.0524758 0
0.108751 0.0519265 0.000320439
0.16228 0.0513161 0.00331121
0.202365 0.0550088 0.00474556
0.247288 0.0592966 0.00534066
0.29543 0.0610666 0.00550851
0.340826 0.06215 0.00540169
0.400046 0.0624247 0.00500496
0.46656 0.0620432 0.00445563
0.538079 0.0609903 0.00384527
0.603586 0.0593423 0.00328069
0.659968 0.0570382 0.00276188
0.712871 0.054078 0.00222782
0.761624 0.050309 0.00169375
0.809293 0.0452735 0.00111391
0.862547 0.037644 0.000488289
0.913512 0.0281071 0.00015259
0.913512 0.0281071 0.00015259
0.913512 0.0281071 0.00015259
0.913512 0.0281071 0.00015259
0.913512 0.0281071 0.00015259
0.913512 0.0281071 0.00015259
0 0.057145 0.00151064
0 0.057145 0.00151064
0 0.057145 0.00151064
0 0.0584115 0.00148013
0 0.0598154 0.00134279
0 0.0611734 0.0011902
0 0.062562 0.000915541
0 0.0646372 0.000442512
4.57771e-05 0.0661936 0
0.00813306 0.0671397 0
0.0237888 0.0694896 0
0.0488136 0.0741588 0
0.0896468 0.0790265 0
0.163104 0.0777447 0.000350958
0.233875 0.0758526 0.00317388
0.282322 0.079469 0.00502022
0.32224 0.0855421 0.00570687
0.370947 0.0887922 0.00653086
0.43151 0.0903639 0.0069276
0.501854 0.0912184 0.0069276
0.567086 0.0911727 0.00662242
0.620401 0.0902419 0.00624094
0.664317 0.0885176 0.00581369
0.701762 0.0860761 0.00535592
0.731487 0.0829786 0.00489815
0.758877 0.0783093 0.00428779
0.790387 0.0711681 0.0034638
0.837812 0.0605173 0.00231937
0.837812 0.0605173 0.00231937
0.837812 0.0605173 0.00231937
0.837812 0.0605173 0.00231937
0.837812 0.0605173 0.00231937
0.837812 0.0605173 0.00231937
0 0.0795911 0.000946059
0 0.0795911 0.000946059
0 0.0795911 0.000946059
0 0.0812848 0.000900282
0 0.0834669 0.000717174
0 0.085359 0.000518807
0 0.0874037 9.15541e-05
0 0.0900893 0
0 0.0933394 0
0.0027924 0.0952621 0
0.0176242 0.0977951 0
0.0433967 0.102327 0
0.0791943 0.109483 0
0.135958 0.115373 0
0.228351 0.113375 0.000228885
0.320867 0.110201 0.00248722
0.388769 0.112642 0.00430304
0.450248 0.118257 0.0056611
0.513191 0.124254 0.00677501
0.582437 0.127703 0.00790417
0.646616 0.128893 0.00843824
0.699138 0.12871 0.00856031
0.741329 0.127459 0.00846876
0.758984 0.125551 0.00831617
0.758984 0.123079 0.00814832
0.759365 0.119554 0.00788891
0.760861 0.113878 0.00746166
0.765484 0.105318 0.00672923
0.765484 0.105318 0.00672923
0.765484 0.105318 0.00672923
0.765484 0.105318 0.00672923
0.765484 0.105318 0.00672923
0.765484 0.105318 0.00672923
0 0.107118 0.000381476
0 0.107118 0.000381476
0 0.107118 0.000381476
0 0.109606 0.000274662
0 0.112627 0
0 0.115251 0
0 0.118044 0
1.5259e-05 0.121859 0
1.5259e-05 0.126818 0
1.5259e-05 0.131243 0
0.00953689 0.133654 0
0.035935 0.138048 0
0.0720531 0.145693 0
0.122194 0.155962 0
0.195544 0.163287 0
0.306157 0.161517 9.15541e-05
0.423941 0.156954 0.00198367
0.540734 0.158663 0.0040589
0.652064 0.162051 0.00614939
0.732311 0.16643 0.00767529
0.788052 0.170718 0.00849927
0.799741 0.172915 0.00854505
0.800275 0.173236 0.00851453
0.799313 0.172656 0.00856031
0.797528 0.171466 0.00860609
0.794293 0.169375 0.00872816
0.788327 0.165255 0.00889601
0.779461 0.158389 0.00910964
0.779461 0.158389 0.00910964
0.779461 0.158389 0.00910964
0.779461 0.158389 0.00910964
0.779461 0.158389 0.00910964
0.779461 0.158389 0.00910964
1.5259e-05 0.138125 0
1.5259e-05 0.138125 0
1.5259e-05 0.138125 0
1.5259e-05 0.14139 0
1.5259e-05 0.145068 0
1.5259e-05 0.148608 0
1.5259e-05 0.152819 0
1.5259e-05 0.158129 0
1.5259e-05 0.164797 0
1.5259e-05 0.171527 0
0.00576791 0.174746 0
0.0255741 0.180453 0
0.0628367 0.188769 0
0.112535 0.20116 0
0.180316 0.215473 0
0.272328 0.224628 0
0.389761 0.223377 3.0518e-05
0.553094 0.217197 0.00180056
0.713573 0.217517 0.00415045
0.825879 0.220478 0.0053254
0.86807 0.223255 0.00575265
0.869764 0.225284 0.00567636
0.870802 0.226535 0.00563058
0.871733 0.227726 0.00560006
0.872709 0.228946 0.00556954
0.872724 0.228992 0.00556954
0.871489 0.227375 0.00561532
0.868391 0.223651 0.00573739
0.868391 0.223651 0.00573739
0.868391 0.223651 0.00573739
0.868391 0.223651 0.00573739
0.868391 0.223651 0.00573739
0.868391 0.223651 0.00573739
1.5259e-05 0.169345 0
1.5259e-05 0.169345 0
1.5259e-05 0.169345 0
1.5259e-05 0.173297 0
1.5259e-05 0.178256 0
1.5259e-05 0.182742 0
1.5259e-05 0.187747 0
1.5259e-05 0.194324 0
1.5259e-05 0.20264 0
1.5259e-05 0.211765 0
0.00537118 0.217044 0
0.0218204 0.225971 0
0.047425 0.238148 0
0.0989395 0.251728 0
0.167514 0.268818 0
0.255146 0.286213 0
0.356329 0.294606 1.5259e-05
0.485817 0.292805 3.0518e-05
0.659144 0.288045 0.00111391
0.772183 0.289952 0.00273136
0.836286 0.294942 0.00909438
0.884993 0.299031 0.0154726
0.895872 0.300816 0.0197604
0.894865 0.302083 0.022858
0.894362 0.303548 0.0251774
0.893935 0.30428 0.0267796
0.893233 0.303426 0.0276951
0.891905 0.300343 0.0278477
0.891905 0.300343 0.0278477
0.891905 0.300343 0.0278477
0.891905 0.300343 0.0278477
0.891905 0.300343 0.0278477
0.891905 0.300343 0.0278477
1.5259e-05 0.199268 0
1.5259e-05 0.199268 0
1.5259e-05 0.199268 0
1.5259e-05 0.204822 0
1.5259e-05 0.211292 0
1.5259e-05 0.21706 0
1.5259e-05 0.223362 0
3.0518e-05 0.231571 0
3.0518e-05 0.241474 0
3.0518e-05 0.252613 0
0.00454719 0.26125 0
0.0206302 0.273198 0
0.0409705 0.289113 0
0.0742657 0.304982 0
0.147387 0.322621 0
0.236439 0.342962 0
0.333272 0.356481 0
0.429648 0.361868 1.5259e-05
0.557748 0.362661 1.5259e-05
0.697826 0.365057 0.0059205
0.798367 0.369375 0.0139925
0.864576 0.373724 0.021973
0.912169 0.376501 0.0281834
0.914916 0.378424 0.0317845
0.914305 0.37995 0.0341497
0.913756 0.379889 0.0352941
0.913054 0.378546 0.0359808
0.912139 0.375891 0.0362402
0.912139 0.375891 0.0362402
0.912139 0.375891 0.0362402
0.912139 0.375891 0.0362402
0.912139 0.375891 0.0362402
0.912139 0.375891 0.0362402
3.0518e-05 0.22974 0
3.0518e-05 0.22974 0
3.0518e-05 0.22974 0
3.0518e-05 0.236896 0
3.0518e-05 0.24445 0
3.0518e-05 0.251392 0
3.0518e-05 0.259297 0
3.0518e-05 0.269123 0
3.0518e-05 0.281239 0
3.0518e-05 0.295033 0
0.00280766 0.307698 0
0.0176547 0.322148 0
0.0411994 0.341436 0
0.0625925 0.361334 0
0.111192 0.377417 0.000839246
0.213565 0.392584 0.00303655
0.312627 0.40943 0.0037995
0.403708 0.422446 0.00454719
0.509773 0.43357 0.00724804
0.642176 0.443641 0.0111849
0.754406 0.450095 0.0164034
0.837934 0.454002 0.0228428
0.897459 0.456764 0.0294499
0.934325 0.457923 0.0343481
0.938415 0.456825 0.0360266
0.937652 0.455573 0.0368048
0.93695 0.45417 0.0373846
0.936217 0.452613 0.0377966
0.936217 0.452613 0.0377966
0.936217 0.452613 0.0377966
0.936217 0.452613 0.0377966
0.936217 0.452613 0.0377966
0.936217 0.452613 0.0377966
3.0518e-05 0.257801 0
3.0518e-05 0.257801 0
3.0518e-05 0.257801 0
3.0518e-05 0.266377 0
3.0518e-05 0.275563 0
3.0518e-05 0.283635 0
3.0518e-05 0.292592 0
3.0518e-05 0.304128 0
3.0518e-05 0.3187 0
3.0518e-05 0.335134 0
0.00248722 0.351049 0
0.0165866 0.368597 0
0.0413062 0.391684 0
0.0655985 0.412924 0.00062562
0.0973373 0.428336 0.00276188
0.170809 0.436393 0.00973526
0.292287 0.453162 0.0192721
0.387243 0.476509 0.0161746
0.494057 0.495491 0.0161288
0.61706 0.512108 0.0196689
0.723598 0.523598 0.0233005
0.810452 0.530449 0.0268864
0.870573 0.532799 0.0301671
0.899504 0.530495 0.0319677
0.915496 0.528695 0.0331579
0.926528 0.527916 0.0340887
0.934676 0.527016 0.0348058
0.940536 0.52604 0.0353552
0.940536 0.52604 0.0353552
0.940536 0.52604 0.0353552
0.940536 0.52604 0.0353552
0.940536 0.52604 0.0353552
0.940536 0.52604 0.0353552
3.0518e-05 0.281117 0
3.0518e-05 0.281117 0
3.0518e-05 0.281117 0
3.0518e-05 0.291585 0
3.0518e-05 0.302083 0
3.0518e-05 0.311177 0
3.0518e-05 0.321263 0
3.0518e-05 0.334264 0
0.000106813 0.350347 0
0.000183108 0.369223 0
0.00244144 0.388022 0
0.0159915 0.408392 0
0.0424353 0.431418 0.000183108
0.0711528 0.449928 0.00251774
0.108843 0.461601 0.00703441
0.153918 0.471519 0.0159915
0.239658 0.485664 0.0302281
0.366781 0.517525 0.0306859
0.47512 0.543877 0.0261845
0.603143 0.566155 0.0281529
0.712093 0.58265 0.0305943
0.79736 0.592828 0.0324865
0.843427 0.593805 0.0333867
0.867765 0.591287 0.033875
0.88397 0.590021 0.0343481
0.895354 0.589426 0.0347448
0.903609 0.588952 0.0350805
0.909499 0.588556 0.0353246
0.909499 0.588556 0.0353246
0.909499 0.588556 0.0353246
0.909499 0.588556 0.0353246
0.909499 0.588556 0.0353246
0.909499 0.588556 0.0353246
3.0518e-05 0.300023 0
3.0518e-05 0.300023 0
3.0518e-05 0.300023 0
3.0518e-05 0.312093 0
3.0518e-05 0.323476 0
3.0518e-05 0.33341 0
7.62951e-05 0.344488 0
0.000137331 0.358679 0
0.000198367 0.376684 0
0.000244144 0.397482 0
0.00241093 0.418296 0
0.0157931 0.439673 0
0.0446632 0.459663 0.00131228
0.0777447 0.474327 0.00494392
0.12015 0.483955 0.0130159
0.166934 0.496498 0.0248264
0.207126 0.513481 0.0350347
0.2981 0.538872 0.0438849
0.434363 0.575433 0.0374762
0.575372 0.604212 0.035172
0.699077 0.6262 0.036347
0.784039 0.638621 0.0373846
0.826413 0.639658 0.037644
0.849149 0.638148 0.037644
0.865171 0.637568 0.0377966
0.876219 0.6374 0.0379644
0.884138 0.637308 0.0381018
0.889845 0.637278 0.0382391
0.889845 0.637278 0.0382391
0.889845 0.637278 0.0382391
0.889845 0.637278 0.0382391
0.889845 0.637278 0.0382391
0.889845 0.637278 0.0382391
3.0518e-05 0.315541 0
3.0518e-05 0.315541 0
3.0518e-05 0.315541 0
3.0518e-05 0.329168 0
6.10361e-05 0.34165 0
0.000106813 0.352178 0
0.00015259 0.364004 0
0.000198367 0.379507 0
0.000244144 0.398795 0
0.000289921 0.421042 0
0.00242618 0.442908 0
0.016434 0.463478 0
0.0480507 0.479927 0.00257877
0.08542 0.491371 0.0083772
0.13048 0.501579 0.0192569
0.17702 0.517968 0.0319219
0.217197 0.538399 0.0415045
0.249622 0.557488 0.0476081
0.353445 0.586404 0.0532387
0.520088 0.62858 0.0425422
0.675853 0.658076 0.0413825
0.768261 0.672602 0.0416876
0.81294 0.674907 0.0417182
0.838224 0.67454 0.0416876
0.854932 0.674449 0.0417487
0.865293 0.674311 0.0417639
0.87335 0.674342 0.041825
0.878904 0.674495 0.0419165
0.878904 0.674495 0.0419165
0.878904 0.674495 0.0419165
0.878904 0.674495 0.0419165
0.878904 0.674495 0.0419165
0.878904 0.674495 0.0419165
3.0518e-05 0.328359 0
3.0518e-05 0.328359 0
3.0518e-05 0.328359 0
7.62951e-05 0.344106 0
0.000137331 0.35758 0
0.000183108 0.36907 0
0.000213626 0.381628 0
0.000244144 0.397864 0
0.000289921 0.417868 0
0.000335698 0.440635 0
0.00250248 0.463172 0
0.0177005 0.481712 0.000228885
0.0524147 0.49453 0.00402838
0.0930343 0.504067 0.0122072
0.13904 0.51632 0.0247044
0.184756 0.53608 0.0371862
0.224826 0.55877 0.0459449
0.257496 0.578729 0.0524453
0.285817 0.595438 0.0574197
0.40032 0.628016 0.0592813
0.617594 0.677028 0.0464332
0.745144 0.697246 0.0454719
0.799451 0.701534 0.0452735
0.829404 0.702403 0.0452125
0.8477 0.702876 0.0452583
0.859663 0.703151 0.0453193
0.866758 0.703166 0.0453193
0.872297 0.703487 0.0453803
0.872297 0.703487 0.0453803
0.872297 0.703487 0.0453803
0.872297 0.703487 0.0453803
0.872297 0.703487 0.0453803
0.872297 0.703487 0.0453803
6.10361e-05 0.338735 0
6.10361e-05 0.338735 0
6.10361e-05 0.338735 0
0.000122072 0.35668 0
0.000183108 0.371328 0
0.000213626 0.383246 0
0.000244144 0.396475 0
0.000274662 0.413306 0
0.000320439 0.433661 0
0.000366217 0.456947 0
0.00271611 0.479255 0
0.019501 0.494987 0.000900282
0.0572519 0.504646 0.00570687
0.0998703 0.51371 0.0158236
0.145678 0.528115 0.0288853
0.190173 0.549966 0.0407111
0.230289 0.57377 0.0492256
0.263157 0.594324 0.0559854
0.291814 0.611688 0.0611734
0.315801 0.626368 0.0648661
0.446296 0.664347 0.0611429
0.689937 0.709804 0.0489662
0.77882 0.719295 0.0481422
0.819455 0.722042 0.0480812
0.841596 0.723232 0.048127
0.855131 0.723812 0.048188
0.863935 0.724178 0.048249
0.868681 0.724392 0.0482338
0.868681 0.724392 0.0482338
0.868681 0.724392 0.0482338
0.868681 0.724392 0.0482338
0.868681 0.724392 0.0482338
0.868681 0.724392 0.0482338
9.15541e-05 0.347478 0
9.15541e-05 0.347478 0
9.15541e-05 0.347478 0
0.000183108 0.367987 0
0.000213626 0.383688 0
0.000244144 0.396063 0
0.000274662 0.409552 0
0.00030518 0.426642 0
0.000350958 0.447318 0
0.000396735 0.47071 0
0.00303655 0.492073 0
0.0223087 0.504768 0.00158694
0.0629892 0.511711 0.00767529
0.106355 0.521279 0.0190738
0.151385 0.537514 0.0321202
0.194873 0.56083 0.043183
0.234791 0.584985 0.0517586
0.267628 0.605798 0.0586252
0.2963 0.623545 0.0638743
0.320302 0.63859 0.0675822
0.340307 0.651377 0.0701915
0.492164 0.690303 0.0604257
0.732906 0.728054 0.0506294
0.803983 0.735256 0.0502937
0.834501 0.737789 0.0503853
0.851057 0.738857 0.0504921
0.861021 0.739422 0.0505531
0.867384 0.73991 0.0506142
0.867384 0.73991 0.0506142
0.867384 0.73991 0.0506142
0.867384 0.73991 0.0506142
0.867384 0.73991 0.0506142
0.867384 0.73991 0.0506142
0.000122072 0.356191 0
0.000122072 0.356191 0
0.000122072 0.356191 0
0.000198367 0.379812 0
0.000244144 0.396475 0
0.000274662 0.409293 0
0.000289921 0.422843 0
0.000335698 0.439963 0
0.000366217 0.460456 0
0.000457771 0.483452 0
0.00367742 0.502983 0
0.0263066 0.51223 0.00239567
0.0696117 0.517128 0.0099031
0.113191 0.527794 0.0222171
0.156832 0.545541 0.0348363
0.199054 0.569574 0.045182
0.238529 0.593652 0.0537728
0.271321 0.61474 0.0606699
0.299687 0.632547 0.0658885
0.323674 0.647868 0.0696269
0.343725 0.660868 0.072221
0.351537 0.665339 0.0729534
0.52372 0.705211 0.0595712
0.76704 0.741588 0.0520027
0.822385 0.747448 0.052079
0.845731 0.749432 0.0522011
0.858198 0.750286 0.0523079
0.865538 0.750851 0.052369
0.865538 0.750851 0.052369
0.865538 0.750851 0.052369
0.865538 0.750851 0.052369
0.865538 0.750851 0.052369
0.865538 0.750851 0.052369
0.000167849 0.366033 0
0.000167849 0.366033 0
0.000167849 0.366033 0
0.000228885 0.392782 0
0.000274662 0.410208 0
0.000289921 0.423301 0
0.000320439 0.436927 0
0.000366217 0.453864 0
0.000411994 0.474067 0
