Assets/SceneAssets/LUT creamy highs.cube
TITLE "Generated by Resolve"
LUT_3D_SIZE 5
0 0 0.000915541
0.0146029 0 0.00140383
0.248524 0 0
0.605295 0 0
0.673548 0 0
0 0.00994888 0.00207523
0.0115969 0.0120546 0.000671397
0.335546 0.0133669 7.62951e-05
0.782132 0.00378424 0.000137331
0.851667 0.00402838 0.000137331
1.5259e-05 0.169345 0
1.5259e-05 0.20264 0
0.356329 0.294606 1.5259e-05
0.894362 0.303548 0.0251774
0.891905 0.300343 0.0278477
6.10361e-05 0.338735 0
0.000320439 0.433661 0
0.230289 0.57377 0.0492256
0.841596 0.723232 0.048127
0.868681 0.724392 0.0482338
0.000167849 0.366033 0
0.000411994 0.474067 0
0.241932 0.600336 0.055375
0.793667 0.751476 0.0531777
0.863554 0.758114 0.0535897
0 0 0.00827039
0.0131533 1.5259e-05 0.0084535
0.25417 0 0.0090486
0.637156 0 0.00352483
0.709438 0 0.00364691
0.000839246 0.0107881 0.0146944
0.0103914 0.0124056 0.00978103
0.334676 0.0109712 0.00367742
0.819257 0 0
0.88632 0.000457771 0.00015259
0 0.183902 0.00813306
0 0.217014 0.00688182
0.353338 0.30695 0
0.897566 0.31548 0.0274662
0.894926 0.309941 0.0294957
1.5259e-05 0.363775 0.0128481
3.0518e-05 0.451209 0.00909438
0.222919 0.574319 0.0486152
0.841337 0.727733 0.0488136
0.868727 0.727794 0.0487526
1.5259e-05 0.399954 0.0207523
0.000122072 0.49514 0.0190585
0.222461 0.586923 0.0611276
0.793179 0.73962 0.0524605
0.864393 0.744671 0.0522621
0 0.00112917 0.184665
0.00309758 0 0.150057
0.247791 0 0.207019
0.612879 0 0.239765
0.691066 0 0.201724
0 0.00373846 0.233661
0 0.022858 0.202594
0.296727 0.00584421 0.256336
0.715602 0 0.274708
0.799054 0.000198367 0.229358
0.00512703 0.227573 0.393896
0.00587472 0.266453 0.434089
0.288899 0.325277 0.285786
0.683589 0.354574 0.301488
0.706691 0.348486 0.268833
0 0.471443 0.204822
0 0.547066 0.225437
0.217807 0.64123 0.308598
0.806592 0.797284 0.308248
0.848478 0.797696 0.248875
0 0.476066 0.115999
0.00447089 0.549416 0.139086
0.223239 0.661097 0.238437
0.762478 0.819516 0.275227
0.844862 0.83154 0.271305
0 0.00323491 0.462654
0 0.00335698 0.46891
0.199908 0 0.528435
0.582559 0 0.600107
0.632425 0 0.60325
0 0.00367742 0.476875
0 0.0145418 0.48278
0.226749 0.00482185 0.577752
0.652781 0 0.607645
0.693049 0.00105287 0.594858
0.00332647 0.204532 0.264286
0.00123598 0.253681 0.211749
0.103517 0.190845 0.496971
0.715694 0.157549 0.485466
0.776944 0.140978 0.490211
0.00901808 0.513649 0.722515
0.00872816 0.563729 0.719829
0.174731 0.688899 0.633204
0.800702 0.819638 0.672938
0.852094 0.83212 0.68101
0.00903334 0.532555 0.725139
0.00851453 0.577356 0.716167
0.180926 0.715755 0.636759
0.760128 0.843519 0.678035
0.847013 0.868116 0.685481
0 0.00347906 0.471321
0 0.00360113 0.474922
0.070161 0 0.498512
0.599466 0 0.610742
0.649714 0 0.61178
0 0.00390631 0.483299
0 0.0277409 0.490059
0.0867628 0.011017 0.578347
0.630732 0.00466926 0.577905
0.673777 0.00723278 0.56495
0.00277714 0.171206 0.323949
0.00489815 0.2009 0.333333
0.00704967 0.181216 0.517845
0.71841 0.138033 0.497414
0.770733 0.143374 0.494926
0.00906386 0.52079 0.725948
0.00875868 0.568597 0.724224
0.167803 0.688045 0.642023
0.77467 0.819608 0.675746
0.846082 0.828428 0.683833
0.00906386 0.539986 0.728817
0.00854505 0.582956 0.721263
0.174624 0.717586 0.64741
0.711757 0.839094 0.682261
0.849683 0.865965 0.694621
